X:253
T:Pall-Mall. (p)1686.PLFD.253
T:Pell-Mell. (p)1686.PLFD.253
M:4/4
L:1/8
Q:1/2=100
S:Playford, Dancing Master,7th Ed.,1686
O:England
H:1686.
Z:Chris Partington.
K:F
D2|G2G2B2g2|B4G2AB|c2F2f2c2|A4F4|
G2G2B2g2|B3AG2AB|cBAGF2A2|G2d4:|
|:Bc|d2ef gfed|B2g2G2AB|c2de fedc|A2f2F2|
Bc|d2ef gfed|efg2d2cB|cBAG^F2A2|G2d4:|
